X:1
T:Ce ne fut pas
T:Ce ne fut pas
T:Anonymous
T:by IMSLP - Österreichischer Bundesverlag, 1904. Plate Dm.d.Tk.in Oest.XI.1.. - Public Domain
T:by IMSLP - Österreichischer Bundesverlag, 1904. Plate Dm.d.Tk.in Oest.XI.1.. - Public Domain
C:Anonymous
Z:by IMSLP - Österreichischer Bundesverlag, 1904. Plate Dm.d.Tk.in Oest.XI.1.. - Public Domain
%%score [ 1 2 3 ]
L:1/8
Q:1/2=80
M:3/1
K:C
V:1 alto2 nm="Tenor"
V:2 tenor nm="Tenor"
V:3 bass nm="Contra"
V:1
 G8 G8 F8 | (G8 E8) C8 | z8 (A8 F8) | E8 F4 E4 D4 C4 | C8 B,8 C4 A,4 | z24 | (D8 E16) | %7
w: Ce ne fut|pas * *|sans un|grant des- * * *|* plai\- sir *||quand *|
 D16"^♯" C8 | D24 | z24 | E24 | E16 E8 | G8 ^F12 E4 |"^♯" F8 z8"^♭" F8 | G8 A16 | G16"^♯" F8 | %16
w: me con\-|vint||dar\-|ra\- ne\-|ment par\- tir.||||
 G24 | z24 | A8 A8 A4 F4 | (E8 D8) z8 | G8 G8 G4 E4 | F8 F8 z8 | (G8 F12) E4 | D4 F8 E4 D4 C4 | %24
w: ||Pre\- nant con- *|* gie|de ma tres *|bel\- le|da- * *|* * me * *|
 B,8 z8 B,8 | D8 E12 D4 | F16 z8 | F8 F8 F8 | G8 F16 | E12 D4 F4 E4 | (D8 C8) z8 | C8 C8 C8 | %32
w: * Quant|si m'aist dieux||et aus\- si|nous\- tre|da- * * me||je cui\- dai|
 D16 E8 | ^F8 A4 A8 G4 | G8 ^F8 G4 A4 | c8 B4 A8 G4 | G8"^♯" F12 E4 | G16 |] %38
w: bien a|cel\- le heu- *|* re mou- *|||rir.|
V:2
 G,8 G,8 A,8 | C16 C8 | A,16 A,8 | (G,8 F,8) G,8 | E,8 D,16 | C,16 z8 | (F,8 A,8) G,8 | F,8 E,16 | %8
w: Ce ne fut|pas sans|un grant|des- * *|* plai|sir|quand * *|me con\-|
 D,16 E,8 | (G,8 ^F,16) | G,24 | G,24 | A,24- | A,16 A,8 | B,8 C16 | B,8 A,16 | G,16 z8 | %17
w: vint dar\-|ra\- ne\-|ment|par\-|tir.|||||
 F,8 G,8 E,8 | F,16 z8 | G,8 G,8 G,8 | E,16 z8 | D,8 D,8 D,8 | E,16 G,8- | G,8 F,16 | G,8 z8 G,8 | %25
w: ||Pre\- nant con\-|gie|de ma tres|bel\- le|* da|me quant|
 B,8 C16 | D16 z8 | A,8 A,8 A,8 | G,8 A,16 | (G,8 F,16) | E,16 z8 | E,8 E,8 E,8 | D,16 ^C8 | %33
w: si m'aist|dieux|et aus\- si|nous\- tre|da- *|me|je cui\- dai|bien a|
 D16 C8 | B,8 A,16 | (G,8"^♯" F,8) G,8 | B,8 A,16 | G,16 |] %38
w: cel\- le|heu\- re|mou- * *||rir.|
V:3
 D4 B,4 G,8 D,8 | (C,16 F,8- | F,8) (F,8 B,,8) | E,4 C,4 (B,,8 G,,8) | A,,8 (B,,8 G,,8) | G,16 z8 | %6
w: Ce * ne fut|pas sans|* un *|grant * * *|des\- plai- *|sir|
 (A,8 C8) C,8 | (D,8 A,,16 | A,16) G,8 | E,8 D,16 | C,24- | C,16 E,8 | D,24- | D,8 (D,8 F,8) | %14
w: quand * *|me con\-|con\- dar\-|ra\- ne\-|ment|* par\-|tir.||
 (E,8 A,8) F,8 | (G,8 D,16) | G,,16 z8 | (D,8 B,,8) G,,8 | D,8 D,16 | G,,8 G,,16 | (G,8 B,8) G,8 | %21
w: ||||Pre\- nant|con\- gie|de * ma|
 A,8 D4 A,4 D8 | B,24- | B,8 (A,16 | D16) D8 | B,8 A,16 | D,8 D,16 | D,16 D,8 | (G,,8 D,16) | %29
w: tres bel- * *|le|* da-|me *|quant si|m'aist dieux|et aussi|nous\- tre|
 (G,,8 D,8 D,8) | A,,24- | A,,24 | A,16 A,8 | D,16 A,8 | (E,8 F,8) C,8 | (G,,8 D,8) G,,8- | %36
w: da- * me||je cuidai|bien a|cel\- le|heu- * re|mou- * *|
 G,,8 D,16 | G,,16 |] %38
w: |rir.|

